neru-dark-classic/22x22/panel/copyq-normal.svg

<svg xmlns="http://www.w3.org/2000/svg" width="22" height="22" version="1.1">
 <defs>
  <style id="current-color-scheme" type="text/css">
   .ColorScheme-Text { color:#d3dae3; } .ColorScheme-Highlight { color:#5294e2; }
  </style>
 </defs>
 <path style="fill:currentColor" class="ColorScheme-Text" d="m6.5 4a3.5 3.5 0 0 0 -3.5 3.5 3.5 3.5 0 0 0 3.5 3.5 3.5 3.5 0 0 0 1.4766 -0.33l1.5234 1.83-5.5 6.5 7-5 7 5-5.5-6.5 1.5234-1.832a3.5 3.5 0 0 0 1.477 0.332 3.5 3.5 0 0 0 3.5 -3.5 3.5 3.5 0 0 0 -0.002 -0.0254c0.000077-0.01965-0.0017-0.038945-0.002-0.058594a3.5 3.5 0 0 0 -0.045 -0.4707c-0.018-0.1195-0.046-0.2361-0.076-0.3535a3.5 3.5 0 0 0 -0.059 -0.2051c-0.063-0.1946-0.146-0.3814-0.244-0.5644-0.154-0.2881-0.335-0.5652-0.576-0.8086-0.536-0.5408-1.205-0.8547-1.9-0.9629a3.5 3.5 0 0 0 -0.02734 -0.00391 3.5 3.5 0 0 0 -0.46094 -0.042969c-0.012-0.0001-0.024-0.0039-0.036-0.0039-0.0059 0-0.01169 0.00192-0.01758 0.00195a3.5 3.5 0 0 0 -0.054 -0.002 3.5 3.5 0 0 0 -3.5 3.5 3.5 3.5 0 0 0 0.383 1.584l-1.383 1.916-1.3809-1.9121a3.5 3.5 0 0 0 0.3809 -1.5879 3.5 3.5 0 0 0 -3.5 -3.5zm0 2a1.5 1.5 0 0 1 1.5 1.5 1.5 1.5 0 0 1 -1.5 1.5 1.5 1.5 0 0 1 -1.5 -1.5 1.5 1.5 0 0 1 1.5 -1.5zm9 0a1.5 1.5 0 0 1 1.5 1.5 1.5 1.5 0 0 1 -1.5 1.5 1.5 1.5 0 0 1 -1.5 -1.5 1.5 1.5 0 0 1 1.5 -1.5z"/>
</svg>

<svg xmlns="http://www.w3.org/2000/svg" width="22" height="22"><defs><style id="current-color-scheme" type="text/css"></style></defs><path d="M6.5 4A3.5 3.5 0 0 0 3 7.5 3.5 3.5 0 0 0 6.5 11a3.5 3.5 0 0 0 1.477-.33L9.5 12.5 4 19l7-5 7 5-5.5-6.5 1.523-1.832A3.5 3.5 0 0 0 15.5 11 3.5 3.5 0 0 0 19 7.5a3.5 3.5 0 0 0-.002-.025l-.002-.059a3.5 3.5 0 0 0-.045-.47 3.582 3.582 0 0 0-.076-.354 3.5 3.5 0 0 0-.059-.205 3.438 3.438 0 0 0-.244-.565 3.412 3.412 0 0 0-.576-.808 3.389 3.389 0 0 0-1.9-.963 3.5 3.5 0 0 0-.027-.004 3.5 3.5 0 0 0-.46-.043c-.013 0-.025-.004-.037-.004l-.017.002A3.5 3.5 0 0 0 15.5 4 3.5 3.5 0 0 0 12 7.5a3.5 3.5 0 0 0 .383 1.584L11 11 9.62 9.088A3.5 3.5 0 0 0 10 7.5 3.5 3.5 0 0 0 6.5 4zm0 2A1.5 1.5 0 0 1 8 7.5 1.5 1.5 0 0 1 6.5 9 1.5 1.5 0 0 1 5 7.5 1.5 1.5 0 0 1 6.5 6zm9 0A1.5 1.5 0 0 1 17 7.5 1.5 1.5 0 0 1 15.5 9 1.5 1.5 0 0 1 14 7.5 1.5 1.5 0 0 1 15.5 6z" fill="currentColor" color="#d3dae3"/></svg>
